logo/survicate-icon.svg

<?xml version="1.0" encoding="UTF-8"?>
<svg width="256px" height="258px" viewBox="0 0 256 258" version="1.1" xmlns="http://www.w3.org/2000/svg" preserveAspectRatio="xMidYMid">
    <title>Survicate</title>
    <g>
        <path d="M64.076722,59.9195338 L64.076722,0.0284341324 C47.1179322,0.0284341324 30.8507332,6.7819582 18.8398647,18.8092923 C7.12197951,30.5432626 0.387789129,46.3631112 0.0159379139,62.9478083 L0,64.3987513 C0.0567543462,81.4047826 6.81042691,97.6962212 18.7857807,109.716262 C30.4689744,121.44242 46.1958527,128.172518 62.6755327,128.533044 L64.0716266,128.548119 C80.9986067,128.504444 97.2208933,121.73339 109.195803,109.714078 C121.169985,97.6947653 127.922841,81.4033267 127.979619,64.3987513 L127.979619,0.0284341324 C111.760244,0.0331968722 96.1464926,6.21659484 84.2873211,17.3314817 C72.427713,28.4463613 65.2053526,43.6655827 64.076722,59.9195338 Z M191.877346,128.565589 L255.954142,128.565589 C255.949046,112.273423 249.795263,96.5883364 238.731701,84.6752994 C227.668867,72.7613887 212.520254,65.5053984 196.340914,64.3703626 L255.954142,64.3703626 C255.955597,47.3343412 249.234041,30.9926036 237.262043,18.9265592 C225.582755,7.15478713 209.835118,0.389576957 193.326507,0.0160114383 L191.882442,0 C174.951895,0.0529465564 158.730336,6.83577287 146.761978,18.8664335 C135.085531,30.6035994 128.384359,46.4048195 128.025214,62.9625822 L128.010191,64.3651944 C128.053866,81.3720266 134.795075,97.6700162 146.761978,109.69952 C158.728881,121.729023 174.948256,128.511723 191.877346,128.565589 Z M64.1051107,128.564861 L0.0284341324,128.564861 C0.0284341324,144.851932 6.17660327,160.532651 17.2303017,172.447144 C28.2840365,184.362365 43.422678,191.624033 59.5951754,192.770497 L0.0284341324,192.770497 C0.0284341324,209.806591 6.7513203,226.148256 18.723908,238.212699 C30.4045452,249.983597 46.1522156,256.748042 62.6608276,257.120357 L64.1051107,257.136273 C81.0335466,257.078768 97.2507379,250.294612 109.215457,238.264381 C120.888353,226.52757 127.588053,210.728645 127.946452,194.172954 L127.961421,192.770497 C127.919929,175.764975 121.180176,159.466985 109.215457,147.436754 C97.2507379,135.406523 81.0335466,128.621638 64.1051107,128.564861 Z M192.086986,128.585971 L191.928301,128.585971 C174.997754,128.626734 158.7711,135.397788 146.794734,147.420012 C134.817641,159.442236 128.064784,175.737314 128.010191,192.745748 L128.010191,257.115893 C144.226654,257.114436 159.838949,250.936632 171.699576,239.827939 C183.560204,228.719247 190.786932,213.505849 191.923205,197.255901 L191.923205,257.115893 C208.881413,257.117348 225.14883,250.365219 237.160135,238.338628 C248.877772,226.605368 255.612512,210.786437 255.984085,194.202055 L256,192.750843 C255.946135,175.743138 249.194006,159.448059 237.218369,147.425107 C225.242731,135.402155 209.017533,128.629645 192.086986,128.585971 Z" fill="#171D1A"></path>
    </g>
</svg>

<svg viewBox="0 0 256 258" xmlns="http://www.w3.org/2000/svg"><path fill="#171D1A" d="M64.07 59.91V.01C47.11 0 30.84 6.76 18.83 18.79 7.11 30.52.37 46.34-.001 62.92l-.02 1.45c.05 17 6.81 33.29 18.78 45.31 11.68 11.72 27.41 18.45 43.88 18.81l1.39.01c16.92-.05 33.14-6.82 45.12-18.84 11.97-12.02 18.72-28.32 18.78-45.32V-.04c-16.22 0-31.84 6.18-43.7 17.3 -11.86 11.11-19.09 26.33-20.22 42.58Zm127.8 68.64h64.07c-.01-16.3-6.16-31.98-17.23-43.9 -11.07-11.92-26.22-19.17-42.4-20.31h59.61c0-17.04-6.73-33.38-18.7-45.45C225.54 7.11 209.79.35 193.28-.03l-1.45-.02c-16.94.05-33.16 6.83-45.13 18.86 -11.68 11.73-18.38 27.53-18.74 44.09l-.02 1.4c.04 17 6.78 33.3 18.75 45.33 11.96 12.02 28.18 18.81 45.11 18.86Zm-127.78-.01H.01c0 16.28 6.14 31.96 17.2 43.88 11.05 11.91 26.19 19.17 42.36 20.32H0c-.001 17.03 6.72 33.37 18.69 45.44 11.68 11.77 27.42 18.53 43.93 18.9l1.44.01c16.92-.06 33.14-6.85 45.11-18.88 11.67-11.74 18.37-27.54 18.73-44.1l.01-1.41c-.05-17.01-6.79-33.31-18.75-45.34 -11.97-12.04-28.19-18.82-45.12-18.88Zm127.98.02h-.16c-16.94.04-33.16 6.81-45.14 18.83 -11.98 12.02-18.73 28.31-18.79 45.32v64.37c16.21-.01 31.82-6.18 43.68-17.29s19.08-26.33 20.22-42.58v59.85c16.95 0 33.22-6.76 45.23-18.78 11.71-11.74 18.45-27.56 18.82-44.14l.01-1.46c-.06-17.01-6.81-33.31-18.79-45.33 -11.98-12.03-28.21-18.8-45.14-18.84Z"/></svg>
